X:1
T:[ID 2-101]
T:[ID 2-101]
T:Bezeichnung standardisiert: Exempla Vom General=Bass; Exempla Vom General=Bass
T:Urheber unbekannt Datum in der hier transkribierten schriftlichen Quelle: 1767
C:Urheber unbekannt
C:Datum in der hier transkribierten schriftlichen Quelle: 1767
L:1/8
M:4/4
K:C
V:1 bass 
V:1
"^8;5;3" C,2 C,2 G,2 G,2 | C,2 C,2 F,2 F,,2 | D,2 D,2 G,2 G,,2 |"^6;3" E,2 C,2 F,2 F,,2 | %4
"^6" ^F,2"^#" D,2 G,2 G,,2 |"^6-" E,D,"^6" E,"^-"C, F,2"^6" E,"^-"F, | %6
 G,2 G,,2 C,2 !fermata!C,,2 |][K:G][M:4/4]"^Exemplum ex G. dur" G,G,G,G,"^6" F,"^-"F,"^-"F,"^-"F, | %8
 G,G,"^6"F,"^-"F,"^7" E,E,"^7;#" A,A,, | D, D,C,"^6" B,,"^-"B,,"^-"B,,"^-"B,, | %10
 C,C,C,C,"^6" ^C,"^-"C,"^-"C,"^-"C, | D,D,D,D,"^6" B,,G,,/A,,/"^6" B,,G,, | %12
 C,2 G,,2"^6;4" D,2"^5;#" D,,2 | (G,,D,G,A,)"^6" B,"^-"A,"^6" B,"^-"G, | %14
 C2"^6" B,2"^7" A,(B,/C/)"^7" DD, | G,2 z"^6" C,"^6;4" D,2"^5;3" D,,2 | G,4 !fermata!G,,4 | %17

